assets/src/svg/individual/wikimedia.svg

<svg width="64" height="64" viewBox="0 0 64 64" version="1.1" xmlns="http://www.w3.org/2000/svg" xmlns:xlink="http://www.w3.org/1999/xlink">
	<title><?php esc_html_e( 'Logo Mark', 'shiro' ); ?></title>
	<g id="Canvas" transform="translate(2304 17669)">
	<g id="Logo Mark">
	<g id="Logo Mark">
	<use xlink:href="#path0_fill" transform="translate(-2304 -17669)"></use>
	</g>
	</g>
	</g>
	<defs>
	<path id="path0_fill" d="M 34.7991 51.5545C 44.3688 50.1968 51.7069 42.013 51.7069 32.132C 51.7069 26.0978 48.9835 20.7425 44.7092 17.122L 34.7991 27.0029L 34.7991 51.5545ZM 29.2388 51.5545L 29.2388 27.0029L 19.3286 17.0843C 15.0544 20.6671 12.331 26.0601 12.331 32.0943C 12.331 42.013 19.669 50.1968 29.2388 51.5545ZM 49.1348 15.0477C 53.7116 19.6111 56.208 25.683 56.208 32.0943C 56.208 38.5056 53.6738 44.6152 49.1348 49.1408C 44.5579 53.7042 38.4681 56.1933 32.0378 56.1933C 25.6076 56.1933 19.4799 53.6665 14.9409 49.1408C 10.4019 44.6152 7.82979 38.5433 7.82979 32.0943C 7.82979 25.6453 10.3641 19.5734 14.9031 15.0477C 15.2813 14.6706 15.6974 14.2935 16.1135 13.9163L 10.591 8.41014C 10.1749 8.78727 9.79669 9.16441 9.38061 9.54154C 6.43026 12.4832 4.12293 15.8774 2.53428 19.6865C 0.869976 23.6087 0 27.7949 0 32.0943C 0 36.3936 0.832151 40.5798 2.53428 44.5021C 4.16076 48.3111 6.46808 51.7054 9.38061 54.647C 12.331 57.5887 15.7352 59.8892 19.5556 61.4732C 23.4894 63.1326 27.6879 64 32 64C 36.3121 64 40.5106 63.1703 44.4444 61.4732C 48.2648 59.8515 51.669 57.551 54.6194 54.647C 57.5697 51.7054 59.8771 48.3111 61.4657 44.5021C 63.13 40.5798 64 36.3936 64 32.0943C 64 27.7949 63.1679 23.6087 61.4657 19.6865C 59.8392 15.8774 57.5319 12.4832 54.6194 9.54154C 54.2411 9.16441 53.8251 8.78727 53.409 8.41014L 47.9244 13.9163C 48.3404 14.2557 48.7187 14.6329 49.1348 15.0477ZM 32 0C 37.5225 0 41.9858 4.45021 41.9858 9.95639C 41.9858 15.4626 37.5225 19.9128 32 19.9128C 26.4775 19.9128 22.0142 15.4626 22.0142 9.95639C 22.0142 4.45021 26.4775 0 32 0Z"></path>
	</defs>
</svg>

<svg xmlns="http://www.w3.org/2000/svg" xmlns:xlink="http://www.w3.org/1999/xlink" width="64" height="64"><use xlink:href="#a"/><defs><path id="a" d="M34.8 51.554c9.569-1.357 16.907-9.541 16.907-19.422 0-6.034-2.724-11.39-6.998-15.01l-9.91 9.88v24.552Zm-5.561 0V27.003l-9.91-9.919a19.535 19.535 0 0 0-6.998 15.01c0 9.919 7.338 18.103 16.908 19.46Zm19.896-36.506a23.93 23.93 0 0 1 7.073 17.046 24.022 24.022 0 0 1-7.073 17.047c-4.577 4.563-10.667 7.052-17.097 7.052a24.165 24.165 0 0 1-17.097-7.052C10.4 44.615 7.83 38.543 7.83 32.094s2.534-12.52 7.073-17.046c.378-.377.794-.755 1.21-1.132L10.591 8.41c-.416.377-.794.754-1.21 1.132-2.95 2.941-5.258 6.335-6.847 10.144A31.653 31.653 0 0 0 0 32.094c0 4.3.832 8.486 2.534 12.408 1.627 3.81 3.934 7.203 6.847 10.145 2.95 2.942 6.354 5.242 10.175 6.826A31.908 31.908 0 0 0 32 64c4.312 0 8.51-.83 12.444-2.527a32.585 32.585 0 0 0 10.175-6.826c2.95-2.942 5.258-6.336 6.847-10.145A31.654 31.654 0 0 0 64 32.094c0-4.3-.832-8.485-2.534-12.408-1.627-3.809-3.934-7.203-6.847-10.144a35.45 35.45 0 0 0-1.21-1.132l-5.485 5.506c.416.34.795.717 1.21 1.132ZM32 0c5.523 0 9.986 4.45 9.986 9.956 0 5.507-4.463 9.957-9.986 9.957-5.523 0-9.986-4.45-9.986-9.957C22.014 4.45 26.477 0 32 0Z"/></defs></svg>
